images/fig21.svg

<?xml version="1.0" standalone="no"?>
<!DOCTYPE svg PUBLIC "-//W3C//DTD SVG 1.1//EN" 
  "http://www.w3.org/Graphics/SVG/1.1/DTD/svg11.dtd">
<!-- Created with ASCIIToSVG (http://9vx.org/~dho/a2s/) -->
<svg width="126px" height="416px" version="1.1"
  xmlns="http://www.w3.org/2000/svg" xmlns:xlink="http://www.w3.org/1999/xlink">
  <defs>
    <filter id="dsFilter" width="150%" height="150%">
      <feOffset result="offOut" in="SourceGraphic" dx="3" dy="3"/>
      <feColorMatrix result="matrixOut" in="offOut" type="matrix" values="0.2 0 0 0 0 0 0.2 0 0 0 0 0 0.2 0 0 0 0 0 1 0"/>
      <feBlend in="SourceGraphic" in2="matrixOut" mode="normal"/>
    </filter>
    <marker id="iPointer"
      viewBox="0 0 10 10" refX="5" refY="5" 
      markerUnits="strokeWidth"
      markerWidth="8" markerHeight="7"
      orient="auto">
      <path d="M 10 0 L 10 10 L 0 5 z" />
    </marker>
    <marker id="Pointer"
      viewBox="0 0 10 10" refX="5" refY="5" 
      markerUnits="strokeWidth"
      markerWidth="8" markerHeight="7"
      orient="auto">
      <path d="M 0 0 L 10 5 L 0 10 z" />
    </marker>
  </defs><g id="boxes" stroke="black" stroke-width="2" fill="none" >
<g id="group0">
	<path id="path0" filter="url(#dsFilter)" fill="#fff" d="M 4.5 8 L 121.5 8 L 121.5 62 Q 121.5 72 111.5 72 L 14.5 72 Q 4.5 72 4.5 62 Z" />
	<text x="35.1" y="28.8" id="text0" fill="#000" stroke="none" style="font-family:LMMono10,monospace;font-size:15.2px" >Step 1 </text>

	<text x="44.1" y="60.8" id="text0" fill="#000" stroke="none" style="font-family:LMMono10,monospace;font-size:15.2px" >PAIR </text>

</g>
<g id="group7">
	<path id="path7" filter="url(#dsFilter)" fill="#fff" d="M 4.5 162 Q 4.5 152 14.5 152 L 111.5 152 Q 121.5 152 121.5 162 L 121.5 238 Q 121.5 248 111.5 248 L 14.5 248 Q 4.5 248 4.5 238 Z" />
	<text x="44.1" y="172.8" id="text7" fill="#000" stroke="none" style="font-family:LMMono10,monospace;font-size:15.2px" >PAIR </text>

	<text x="35.1" y="204.8" id="text7" fill="#000" stroke="none" style="font-family:LMMono10,monospace;font-size:15.2px" >Step 2 </text>

	<text x="44.1" y="236.8" id="text7" fill="#000" stroke="none" style="font-family:LMMono10,monospace;font-size:15.2px" >PAIR </text>

</g>
<g id="group16">
	<path id="path16" filter="url(#dsFilter)" fill="#fff" d="M 4.5 338 Q 4.5 328 14.5 328 L 111.5 328 Q 121.5 328 121.5 338 L 121.5 392 L 4.5 392 Z" />
	<text x="44.1" y="348.8" id="text16" fill="#000" stroke="none" style="font-family:LMMono10,monospace;font-size:15.2px" >PAIR </text>

	<text x="35.1" y="380.8" id="text16" fill="#000" stroke="none" style="font-family:LMMono10,monospace;font-size:15.2px" >Step 3 </text>

</g>
</g>
<g id="lines" stroke="black" stroke-width="2" fill="none" >
<g id="group24">
	<path id="path24" d="M 4.5 40 L 121.5 40 " />
</g>
<g id="group34">
	<path id="path34" d="M 4.5 184 L 121.5 184 " />
</g>
<g id="group37">
	<path id="path37" d="M 4.5 216 L 121.5 216 " />
</g>
<g id="group47">
	<path id="path47" d="M 4.5 360 L 121.5 360 " />
</g>
<g id="group186">
	<path id="path186" d="M 58.5 72 L 58.5 104 " />
</g>
<g id="group191">
	<path id="path191" marker-start="url(#iPointer)" d="M 58.5 136 L 58.5 104 " />
</g>
<g id="group198">
	<path id="path198" d="M 58.5 248 L 58.5 280 " />
</g>
<g id="group203">
	<path id="path203" marker-start="url(#iPointer)" d="M 58.5 312 L 58.5 280 " />
</g>
</g>
<g id="text" fill="black" style="font-family:LMMono10,monospace;font-size:15.2px" >
<text x="35.1" y="108.8" id="text2" fill="#000" >Ready!</text>
<text x="35.1" y="284.8" id="text6" fill="#000" >Ready!</text>
</g>
</svg>

<?xml version="1.0" encoding="UTF-8" standalone="no"?>
<!-- Created with Inkscape (http://www.inkscape.org/) -->

<svg
   xmlns:dc="http://purl.org/dc/elements/1.1/"
   xmlns:cc="http://creativecommons.org/ns#"
   xmlns:rdf="http://www.w3.org/1999/02/22-rdf-syntax-ns#"
   xmlns:svg="http://www.w3.org/2000/svg"
   xmlns="http://www.w3.org/2000/svg"
   version="1.1"
   width="126"
   height="416"
   id="svg2">
  <metadata
     id="metadata59">
    <rdf:RDF>
      <cc:Work
         rdf:about="">
        <dc:format>image/svg+xml</dc:format>
        <dc:type
           rdf:resource="http://purl.org/dc/dcmitype/StillImage" />
        <dc:title></dc:title>
      </cc:Work>
    </rdf:RDF>
  </metadata>
  <defs
     id="defs4">
    <filter
       width="1.5"
       height="1.5"
       color-interpolation-filters="sRGB"
       id="dsFilter">
      <feOffset
         id="feOffset7"
         dy="3"
         dx="3"
         in="SourceGraphic"
         result="offOut" />
      <feColorMatrix
         id="feColorMatrix9"
         values="0.2 0 0 0 0 0 0.2 0 0 0 0 0 0.2 0 0 0 0 0 1 0"
         type="matrix"
         in="offOut"
         result="matrixOut" />
      <feBlend
         in2="matrixOut"
         mode="normal"
         in="SourceGraphic"
         id="feBlend11" />
    </filter>
    <marker
       markerUnits="strokeWidth"
       refX="5"
       refY="5"
       markerWidth="8"
       markerHeight="7"
       orient="auto"
       viewBox="0 0 10 10"
       id="iPointer">
      <path
         d="M 10,0 10,10 0,5 z"
         id="path14" />
    </marker>
    <marker
       markerUnits="strokeWidth"
       refX="5"
       refY="5"
       markerWidth="8"
       markerHeight="7"
       orient="auto"
       viewBox="0 0 10 10"
       id="Pointer">
      <path
         d="M 0,0 10,5 0,10 z"
         id="path17" />
    </marker>
  </defs>
  <g
     id="boxes"
     style="fill:none;stroke:#000000;stroke-width:2">
    <g
       id="group0">
      <path
         d="m 4.5,8 117,0 0,54 q 0,10 -10,10 l -97,0 q -10,0 -10,-10 z"
         id="path0"
         style="fill:#ffffff;filter:url(#dsFilter)" />
      <text
         x="29.099998"
         y="28.799999"
         id="text0"
         style="font-size:15.19999981px;fill:#000000;stroke:none;font-family:'LMMono10, monospace'">ステップ1</text>
      <text
         x="44.099998"
         y="60.799999"
         id="text23"
         style="font-size:15.19999981px;fill:#000000;stroke:none;font-family:'LMMono10, monospace'">PAIR</text>
    </g>
    <g
       id="group7">
      <path
         d="m 4.5,162 q 0,-10 10,-10 l 97,0 q 10,0 10,10 l 0,76 q 0,10 -10,10 l -97,0 q -10,0 -10,-10 z"
         id="path7"
         style="fill:#ffffff;filter:url(#dsFilter)" />
      <text
         x="44.099998"
         y="172.8"
         id="text7"
         style="font-size:15.19999981px;fill:#000000;stroke:none;font-family:'LMMono10, monospace'">PAIR</text>
      <text
         x="29.099998"
         y="204.8"
         id="text28"
         style="font-size:15.19999981px;fill:#000000;stroke:none;font-family:'LMMono10, monospace'">ステップ2</text>
      <text
         x="44.099998"
         y="236.8"
         id="text30"
         style="font-size:15.19999981px;fill:#000000;stroke:none;font-family:'LMMono10, monospace'">PAIR</text>
    </g>
    <g
       id="group16">
      <path
         d="m 4.5,338 q 0,-10 10,-10 l 97,0 q 10,0 10,10 l 0,54 -117,0 z"
         id="path16"
         style="fill:#ffffff;filter:url(#dsFilter)" />
      <text
         x="44.099998"
         y="348.79999"
         id="text16"
         style="font-size:15.19999981px;fill:#000000;stroke:none;font-family:'LMMono10, monospace'">PAIR</text>
      <text
         x="29.099998"
         y="380.79999"
         id="text35"
         style="font-size:15.19999981px;fill:#000000;stroke:none;font-family:'LMMono10, monospace'">ステップ3</text>
    </g>
  </g>
  <g
     id="lines"
     style="fill:none;stroke:#000000;stroke-width:2">
    <g
       id="group24">
      <path
         d="m 4.5,40 117,0"
         id="path24" />
    </g>
    <g
       id="group34">
      <path
         d="m 4.5,184 117,0"
         id="path34" />
    </g>
    <g
       id="group37">
      <path
         d="m 4.5,216 117,0"
         id="path37" />
    </g>
    <g
       id="group47">
      <path
         d="m 4.5,360 117,0"
         id="path47" />
    </g>
    <g
       id="group186">
      <path
         d="m 58.5,72 0,32"
         id="path186" />
    </g>
    <g
       id="group191">
      <path
         d="m 58.5,136 0,-32"
         id="path191"
         style="marker-start:url(#iPointer)" />
    </g>
    <g
       id="group198">
      <path
         d="m 58.5,248 0,32"
         id="path198" />
    </g>
    <g
       id="group203">
      <path
         d="m 58.5,312 0,-32"
         id="path203"
         style="marker-start:url(#iPointer)" />
    </g>
  </g>
  <g
     id="text"
     style="font-size:15.19999981px;fill:#000000;font-family:'LMMono10, monospace'">
    <text
       x="35.099998"
       y="108.8"
       id="text2"
       style="fill:#000000">Ready!</text>
    <text
       x="35.099998"
       y="284.79999"
       id="text6"
       style="fill:#000000">Ready!</text>
  </g>
</svg>
